Papirus/16x16/apps/borderlands-2.svg

<svg xmlns="http://www.w3.org/2000/svg" width="16" height="16" version="1">
 <rect style="fill:#aa3131" width="16" height="16" x="0" y="0" rx="8" ry="8"/>
 <path style="fill:#f7b400" d="M 9.2448202,2.1319567 C 8.61142,1.9962011 7.9496079,1.9644975 7.3031014,2.0400701 6.3649418,2.1497221 5.4565557,2.4846304 4.6680983,3.0114163 3.8886806,3.5321174 3.2486571,4.2185813 2.7874133,5.0277214 c -0.1767225,0.31 -0.3274118,0.640754 -0.4477357,0.9836336 -0.08411,0.2399193 -0.1609035,0.5175002 -0.2135264,0.7699426 -0.2735694,1.3151716 -0.099711,2.6714283 0.4973619,3.8772064 0.043126,0.08706 0.044419,0.0895 0.048211,0.08739 0.00414,-0.0019 0.023692,-0.02987 0.3014941,-0.421968 C 4.0194667,8.8472242 5.4325489,6.8330303 7.0898754,4.457929 7.5949608,3.7341295 7.734961,3.5339088 7.7603072,3.4959948 7.9175004,3.2607735 8.0783093,3.0879395 8.2592535,2.96006 8.3026665,2.929449 8.4090843,2.868593 8.4563478,2.8474285 c 0.2177448,-0.097555 0.4482051,-0.12626 0.7067348,-0.087113 0.071445,0.010815 0.1171387,0.020636 0.1985129,0.042437 0.081374,0.021795 0.125877,0.036202 0.1931415,0.062478 0.2434738,0.095322 0.4294023,0.2355726 0.56915,0.4288907 0.03034,0.04197 0.09214,0.1478707 0.114357,0.1960615 0.09275,0.2011942 0.14553,0.4311268 0.164059,0.713537 0.0073,0.1095974 0.109316,1.2783823 0.186733,2.138999 0.120527,1.3397777 0.23686,2.5793847 0.435305,4.6325803 0.100358,1.038034 0.160177,1.662703 0.186917,1.948555 0.0062,0.06722 0.01202,0.12394 0.01282,0.125894 0.0024,0.0048 0.0038,0.0043 0.05147,-0.02632 0.288716,-0.185686 0.577934,-0.410979 0.833856,-0.649605 0.659792,-0.615169 1.167479,-1.371655 1.490711,-2.221028 0.07948,-0.2089735 0.132399,-0.3737085 0.193402,-0.6013119 0.03701,-0.1380824 0.05233,-0.210838 0.07853,-0.3277243 C 14.11201,8.0815898 14.013223,6.9014927 13.586063,5.8113801 13.412053,5.3673852 13.17952,4.9353186 12.904124,4.5444713 12.158134,3.4858177 11.101218,2.7030715 9.8749006,2.3014554 9.679034,2.2373279 9.448384,2.1754498 9.2448228,2.1319595 Z M 9.0809809,3.7294585 C 8.6272513,3.6823112 8.3365777,4.0027955 8.0884984,4.3401506 6.9139404,6.3738508 5.6618895,8.5763614 4.391294,10.843442 4.0259238,11.495348 3.6678544,12.136783 3.6665284,12.14173 c -0.00109,0.004 0.014576,0.02154 0.076962,0.08436 0.7160727,0.721833 1.6018399,1.246911 2.5804842,1.530561 0.1223103,0.03533 0.1200127,0.03459 0.2352595,0.06302 0.266311,0.0654 0.4992594,0.108722 0.7542885,0.139036 0.7581218,0.09011 1.5188694,0.03255 2.2578201,-0.170766 0.029303,-0.0081 0.05392,-0.01628 0.054844,-0.01754 6.375e-4,-0.0024 0.00497,-0.197542 0.013654,-0.831361 0.033896,-2.47453 0.05287,-5.0363804 0.055669,-7.4936208 C 9.6555414,4.7051499 9.6912684,3.9342815 9.0809779,3.7294547 Z"/>
</svg>

<svg xmlns="http://www.w3.org/2000/svg" width="16" height="16" version="1">
 <circle style="fill:#aa3131" cx="-8" cy="8" r="8" transform="scale(-1,1)"/>
 <path style="fill:#f7b400" d="M 9.2448,2.132 C 8.6114,1.9962 7.9496,1.9645 7.3031,2.0401 6.3649,2.1497 5.457,2.4846 4.668,3.0114 3.889,3.5321 3.255,4.222 2.787,5.0277 2.466,5.5836 2.278,6.0575 2.126,6.7813 1.853,8.0965 2.026,9.4527 2.624,10.659 2.667,10.746 2.668,10.748 2.672,10.746 2.676,10.744 2.695,10.716 2.973,10.324 4.019,8.8472 5.433,6.833 7.0899,4.4579 7.595,3.7341 7.735,3.5339 7.7603,3.496 7.9175,3.2608 8.0783,3.0879 8.2593,2.9601 8.3027,2.9294 8.4091,2.8686 8.4563,2.8474 8.6741,2.7499 8.9046,2.7212 9.1631,2.7603 9.305,2.7818 9.4551,2.8264 9.5547,2.8652 9.7982,2.9606 9.9841,3.1008 10.124,3.2941 10.154,3.3361 10.216,3.442 10.238,3.4902 10.331,3.6914 10.384,3.9213 10.402,4.2037 L 11.224,13.05 11.276,13.023 C 11.564,12.838 11.854,12.612 12.109,12.374 12.769,11.759 13.277,11.002 13.6,10.153 13.731,9.8096 13.808,9.5109 13.872,9.2238 14.112,8.0816 14.013,6.9015 13.586,5.8114 13.412,5.3674 13.18,4.9353 12.904,4.5445 12.158,3.4858 11.101,2.7031 9.8749,2.3015 9.679,2.2373 9.4484,2.1754 9.2448,2.132 Z M 9.081,3.7295 C 8.6273,3.6823 8.3366,4.0028 8.0885,4.3402 L 3.667,12.142 3.743,12.226 C 4.46,12.948 5.345,13.473 6.324,13.757 6.6397,13.847 6.8796,13.906 7.3135,13.959 8.0716,14.049 8.8324,13.991 9.5713,13.788 L 9.6262,13.77 9.6955,5.4454 C 9.6555,4.7051 9.6913,3.9343 9.081,3.7295 Z"/>
</svg>
